X: 2
T: Stella's Trip To Kamloops
Z: JACKB
S: https://thesession.org/tunes/5137#setting24039
R: strathspey
M: 4/4
L: 1/8
K: Gmaj
Bc|"G"d3B G2 Bc|"G"d<ge>g "C"e>dB<c|"G"d2 G2B2 d2|"C" c>BA<G "D"A2 Bc|
"G"d3B G2 Bc|"G"d<ge>g "C"e2 dc|"G"B>GB<d "C"c>BA<G|"D"D2G2 "G"G2:|
fg|"D"a3 f d2 f<a|"G"g>fg<e d2 ef|"E#m"g4 e>dB<d|"C"c>BA<G "D"A2 Bc|
"G"d3B G2 Bc|"G"d<ge>g "C"e2 dc|"G"B>GB<d "C"c>BA<G|"D"D2G2 "G"G2 fg|
"D"a3 f d2 f<a|"G"g>fg<e d2 ef|"E#m"g4 e>dB<d|"C"c>BA<G "D"A2 Bd|
"C"c>de<c "D"A2 B>c|"G"d<ge>g "C"e2 dc|"G"B>GB<d "C"c>BA<G|"D"D2G2"G"G2 ||
